X:61
T:Jigs simple chords 224
M:3/4
L:1/8
K:Edor
[AA,CE]c de2a | [f2D,2F,2A,2] ae2a | [dD,F,A,]e fe cA | [BB,^D^FA]c A2<B2 | [AA,CE]c de2a |
[f2D,2F,2A,2] ae2c | [dD,F,A,]e fe2^G | [BA,CE]A A2<A2 | [AA,CE]c de2a |
[f2D,2F,2A,2] ae2a | [dD,F,A,]e fe cA | [BB,^D^FA]c A2<B2 | [AA,CE]c de2a |
[f2D,2F,2A,2] ae2c | [dD,F,A,]e fe2^G | [BA,CE]A A2<A2 | [A2D,2F,2A,2] AB AB |
[c2A,2C2E2] de cA | [B2B,2^D2^F2A2] df2a | [^gE,G,B,D]b ge ^fg | [aA,^CEG]^g =g^f ed |
[gD,F,A,]^f =fe dc | [dD,F,A,]e fe2^G | [BA,CE]A A2<A2 | [A2D,2F,2A,2] AB AB |
[c2A,2C2E2] de cA | [B2B,2^D2^F2A2] df2a | [^gE,G,B,D]b ge ^fg | [aA,^CEG]^g =g^f ed |
[gD,F,A,]^f =fe dc | [dD,F,A,]e fe2^G | [BA,CE]A A2<A2 | [B/A,/C/E/] |

